X: 1
T: The MacDonalds of Portree
R: march
Z: John Chambers <jc@trillian.mit.edu>
M: C|
L: 1/8
K: D
|: AB \
|| "D"defe d2A2 | "G"BABd "A7"A2de | "D"fgfe "Bm"dAaf | "Em"f2e2 "A7"e2AB |
|  "D"defe d2A2 | "G"BABd "A7"A2de | "D"f2af "A7"eAef | "D"d6 :|
|: fg \
|| "D"a2a2 fade | "A7"feAe "D"f2fg | "D"a2a2 "Bm"fdaf | "Em"f2e2 "A7"e2fg |
|  "D"a2a2 fade | "A7"feAe e2de    | "D"f2af "A7"eAef | "D"d6 :|
